icons/misc/description-monochrome.svg

<?xml version="1.0" encoding="UTF-8"?><svg id="Ebene_2" xmlns="http://www.w3.org/2000/svg" viewBox="0 0 16 20"><defs><style>.cls-1{fill:#5381a9;}</style></defs><g id="Ebene_1-2"><g id="Ebene_2-2"><g id="Ebene_2-2"><path class="cls-1" d="M14,0H2C.895,0,0,.895,0,2V18c0,1.105,.895,2,2,2H14c1.105,0,2-.895,2-2V2c0-1.105-.895-2-2-2Zm-1,14H3v-1H13v1Zm0-3H3v-1H13v1Zm0-3H3v-1H13v1Zm0-3H3v-1H13v1Z"/></g></g></g></svg>

<svg xmlns="http://www.w3.org/2000/svg" viewBox="0 0 16 20"><path d="M14 0H2a2 2 0 0 0-2 2v16a2 2 0 0 0 2 2h12a2 2 0 0 0 2-2V2a2 2 0 0 0-2-2Zm-1 14H3v-1h10v1Zm0-3H3v-1h10v1Zm0-3H3V7h10v1Zm0-3H3V4h10v1Z" style="fill:#5381a9"/></svg>
